src/pos-icons/download-lock.svg

<svg height="24" viewBox="0 0 24 24" width="24" xmlns="http://www.w3.org/2000/svg"><path d="m5 20h9v-2h-9m14-9h-4v-6h-6v6h-4l7 7m10 0a1.08 1.08 0 0 1 1 1v4a1.08 1.08 0 0 1 -1 1h-5a1.08 1.08 0 0 1 -1-1v-4a1.08 1.08 0 0 1 1-1v-1.5a2.5 2.5 0 0 1 5 0zm-1 0v-1.5a1.5 1.5 0 0 0 -3 0v1.5z"/></svg>

<?xml version="1.0" encoding="UTF-8"?><!DOCTYPE svg PUBLIC "-//W3C//DTD SVG 1.1//EN" "http://www.w3.org/Graphics/SVG/1.1/DTD/svg11.dtd"><svg xmlns="http://www.w3.org/2000/svg" xmlns:xlink="http://www.w3.org/1999/xlink" version="1.1" id="mdi-download-lock" width="24" height="24" viewBox="0 0 24 24"><path d="M5 20H14V18H5M19 9H15V3H9V9H5L12 16M22 16A1.08 1.08 0 0 1 23 17V21A1.08 1.08 0 0 1 22 22H17A1.08 1.08 0 0 1 16 21V17A1.08 1.08 0 0 1 17 16V14.5A2.5 2.5 0 0 1 22 14.5V16M21 16V14.5A1.5 1.5 0 0 0 18 14.5V16H21" /></svg>
